X: 14796
T: Gandy Dancer, The
R: jig
M: 6/8
K: Dmajor
|:FDF ABc|dfa g2e|afa dfa|gec dcB|
A^GA DFA|d2d EFG|FAd faf|1 edc d2A:|2 edc d2B||
|:AFA d2B|A^GA DFA|BAB g2e|fdf edB|
AFA dfa|g2g bag|fdA FAf|1 edc d2B:|2 edc d2A||

